X: 43337
T: World's End, The
R: reel
M: 4/4
K: Bminor
F2BF dFB(F|~F2)BA FEED|F2BF dF (3Bcd|1 cAae cBBA:|2 cAec B4||
|:EcBA F2AF|EAcA dAcA|EcBA ~F3B|cefe aecA|
EcBA F2AF|EAcA dAcA|EcBA ~F3B|cefe ~a3z:|
|:Bcdc B2Bc|dcBA F~E3|Bcd2 Bcde|fdgf edcA|
(3Bcd cA (3Bcd cA|d2cA FEED|(F~G2)A B2 (3Bcd|edcA B2BA:|

